images/icon-overwolf.svg

<svg version="1.1" id="Layer_1" xmlns="http://www.w3.org/2000/svg" x="0" y="0" viewBox="0 0 174 40" xml:space="preserve"><style type="text/css">.st0{fill:#f6f6f6}</style><path class="st0" d="M58.9 11c-4.2 0-6.4 2.3-6.4 6v6.2c0 3.7 2.6 6 6.4 6s6.4-2.3 6.4-6V17c0-3.8-2.5-6-6.4-6zm2.5 12c0 1.6-.9 2.6-2.5 2.6s-2.5-1-2.5-2.6v-6.1c0-1.6.9-2.6 2.5-2.6s2.5 1 2.5 2.6V23zm12 .3l-2.8-12h-4.1L71.2 29h4.2L80 11.3h-3.9l-2.7 12zm12.4-1.7h6.3v-3.4h-6.3v-3.5h7.1v-3.5h-11v17.7h11.3v-3.5h-7.4V21.6zm22.3-4.8c0-3.4-2.6-5.6-6.1-5.6h-6.5v17.7h3.9v-6.3h2.3l2.3 6.3h4.2l-2.8-7.1c1.8-1 2.7-2.8 2.7-5zm-6.5 2.4h-2.2v-4.5h2.2c1.6 0 2.6.9 2.6 2.3 0 1.3-.9 2.2-2.6 2.2zm20.6 3l-1.9-11h-3.6l-1.8 11-1.7-11h-3.9l3.6 17.7h3.6l2-11.2 2 11.2h3.6l3.6-17.7H124l-1.8 11zM135.4 11c-4.2 0-6.4 2.3-6.4 6v6.2c0 3.7 2.6 6 6.4 6 3.8 0 6.4-2.3 6.4-6V17c.1-3.8-2.5-6-6.4-6zm2.5 12c0 1.6-.9 2.6-2.5 2.6s-2.5-1-2.5-2.6v-6.1c0-1.6.9-2.6 2.5-2.6s2.5 1 2.5 2.6V23zm10.6-11.7h-3.9V29H155v-3.5h-6.6V11.3h.1zm19.2 3.4v-3.5h-11.1v17.7h3.9v-6.7h6.3v-3.5h-6.3v-3.9l7.2-.1zM18.6 8.5L9.4 1.4l1.3 14.3-3.9 5.5 1.8 5.3c1.9.7 3.6 1.8 5.1 3.1.2-1.5.5-3.9.7-5l-3 .6c1-6.1 3.5-11.7 7.2-16.7zm3.1 13.9l-7.1-3.5c1.5 3.8 2.1 4.4 7.1 3.5zM37 15.7l1.2-14.3C29.5 8 26.7 9 23.5 17.2l4.5-.8c-5.6 5.8-9 13.6-9.6 19.7l1.1 2.6h8.6c1.3-3.1 3.3-9.3 10.9-12.2l1.8-5.3-3.8-5.5zm-13.1 20l-2.7-4h5.5l-2.8 4zm1.9-13.3l7.1-3.5c-1.5 3.8-2.1 4.4-7.1 3.5z"/></svg>

<?xml version="1.0" encoding="utf-8"?>
<!-- Generator: Adobe Illustrator 21.0.1, SVG Export Plug-In . SVG Version: 6.00 Build 0)  -->
<svg version="1.1" id="Layer_1" xmlns="http://www.w3.org/2000/svg" xmlns:xlink="http://www.w3.org/1999/xlink" x="0px" y="0px"
	 viewBox="0 0 174 40" style="enable-background:new 0 0 174 40;" xml:space="preserve">
<style type="text/css">
	.st0{fill:#F6F6F6;}
</style>
<path class="st0" d="M58.9,11c-4.2,0-6.4,2.3-6.4,6v6.2c0,3.7,2.6,6,6.4,6s6.4-2.3,6.4-6v-6.2C65.3,13.2,62.8,11,58.9,11z M61.4,23
	c0,1.6-0.9,2.6-2.5,2.6c-1.6,0-2.5-1-2.5-2.6v-6.1c0-1.6,0.9-2.6,2.5-2.6c1.6,0,2.5,1,2.5,2.6V23z M73.4,23.3l-2.8-12h-4.1l4.7,17.7
	h4.2L80,11.3h-3.9L73.4,23.3z M85.8,21.6h6.3v-3.4h-6.3v-3.5h7.1v-3.5H81.9v17.7h11.3v-3.5h-7.4v-3.7L85.8,21.6L85.8,21.6z
	 M108.1,16.8c0-3.4-2.6-5.6-6.1-5.6h-6.5v17.7h3.9v-6.3h2.3l2.3,6.3h4.2l-2.8-7.1C107.2,20.8,108.1,19,108.1,16.8z M101.6,19.2h-2.2
	v-4.5h2.2c1.6,0,2.6,0.9,2.6,2.3C104.2,18.3,103.3,19.2,101.6,19.2z M122.2,22.2l-1.9-11h-3.6l-1.8,11l-1.7-11h-3.9l3.6,17.7h3.6
	l2-11.2l2,11.2h3.6l3.6-17.7h-3.7L122.2,22.2z M135.4,11c-4.2,0-6.4,2.3-6.4,6v6.2c0,3.7,2.6,6,6.4,6c3.8,0,6.4-2.3,6.4-6v-6.2
	C141.9,13.2,139.3,11,135.4,11z M137.9,23c0,1.6-0.9,2.6-2.5,2.6c-1.6,0-2.5-1-2.5-2.6v-6.1c0-1.6,0.9-2.6,2.5-2.6
	c1.6,0,2.5,1,2.5,2.6V23z M148.5,11.3h-3.9v17.7H155v-3.5h-6.6V11.3H148.5z M167.7,14.7v-3.5h-11.1v17.7h3.9v-6.7h6.3v-3.5h-6.3
	v-3.9L167.7,14.7L167.7,14.7z"/>
<path class="st0" d="M18.6,8.5L9.4,1.4l1.3,14.3l-3.9,5.5l1.8,5.3c1.9,0.7,3.6,1.8,5.1,3.1c0.2-1.5,0.5-3.9,0.7-5l-3,0.6
	C12.4,19.1,14.9,13.5,18.6,8.5z M21.7,22.4l-7.1-3.5C16.1,22.7,16.7,23.3,21.7,22.4z M37,15.7l1.2-14.3C29.5,8,26.7,9,23.5,17.2
	l4.5-0.8C22.4,22.2,19,30,18.4,36.1l1.1,2.6h8.6c1.3-3.1,3.3-9.3,10.9-12.2l1.8-5.3L37,15.7z M23.9,35.7l-2.7-4h5.5L23.9,35.7z
	 M25.8,22.4l7.1-3.5C31.4,22.7,30.8,23.3,25.8,22.4z"/>
</svg>
